X: 614
T: The money musk
C: anon.
O: Ireland
B: Francis O'Neill: "The Dance Music of Ireland" (1907) no. 614
R: Reel
Z: Transcribed by Frank Nordberg - http://www.musicaviva.com
F: http://www.musicaviva.com/abc/tunes/ireland/oneill-1001/oneill-1001-061
4.abc
M: C|
L: 1/8
K: A
af|e>c (3ccc fcdf|edcA BEGB|edcB Aaga|befg agaf|edca fcdf|edcA BEGB|edcB
Aaga|
fdBd cAA||e|agae cefg|agba gefg|agae cdeg|fdBd cAAe|(ag)(gf) (fe)(ec)|dfe
c dcBA|GABd cefa|gbega2|]
W:
W:
W: From Musica Viva - http://www.musicaviva.com
W: the Internet center for free sheet music downloads.


